packages/calcite-ui-icons/icons/dimensions-centered-16.svg

<?xml version="1.0" encoding="UTF-8"?><svg id="icons" xmlns="http://www.w3.org/2000/svg" viewBox="0 0 16 16"><defs><style>.cls-1{fill:none;}</style></defs><rect class="cls-1" width="16" height="16"/><path d="M11,6l3,2.5-3,2.5v-2h-6v2l-3-2.5,3-2.5v2h6v-2ZM15,11h1v-5h-1v5ZM0,11h1v-5H0v5ZM0,5h1v-1H0v1ZM0,3h1v-1H0v1ZM15,2v1h1v-1h-1ZM15,5h1v-1h-1v1ZM0,13h1v-1H0v1ZM15,13h1v-1h-1v1ZM0,15h1v-1H0v1ZM15,15h1v-1h-1v1Z"/></svg>

<svg xmlns="http://www.w3.org/2000/svg" viewBox="0 0 16 16"><path d="M0 0h16v16H0z" style="fill:none"/><path d="m11 6 3 2.5-3 2.5V9H5v2L2 8.5 5 6v2h6zm4 5h1V6h-1zM0 11h1V6H0zm0-6h1V4H0zm0-2h1V2H0zm15-1v1h1V2zm0 3h1V4h-1zM0 13h1v-1H0zm15 0h1v-1h-1zM0 15h1v-1H0zm15 0h1v-1h-1z"/></svg>
